X: 454
T: Flogging Reel
B: good tune book
B: tunes
M:4/4
R: reel
Q: 1/4=100
K:Gmajor
V:1 
|BG (3GGG BGdG|BG (3GGG Bdgd|BG (3GGG BGdB|AFDF ABcA|
 BG (3GGG BGdG|BG (3GGG Bdgd|BG (3GGG BGdB|AFDF ABcA||
 gfgd BGBd|gfge fgaf|gfge dBGB|AFDF ABcd|
 gfgd BGBd|gfge fgaf|gfge dBGB|AFDF ABcA||
 Bdgd Bdgd|Bdgd BG (3GGG|Adfd Adfd|Adfd BG (3GGG|
 Bdgd Bdgd|Bdef gfga|bfaf gedB|AFDF ABcA||
% abcbook-tune_id 63ce6af3a74760153c74c33d
% abcbook-tune_composer_id 
% abcbook-link-0 https://www.youtube.com/watch?v=nDcSox_J4AA
% abcbook-link-title-0 Flogging Reel
% abcbook-boost 0
% abcbook-difficulty 0
% abcbook-tags good tune book
% abcbook-tablature 
% abcbook-transpose 
% abcbook-tuning 
% abcbook-lastupdated 1675428655976
% abcbook-soundfonts 
% abcbook-repeats 1


